X:1
T: The Canty Auld Man
C:
R:Jig
Q:180
K:G
M:6/8
L:1/16
|:D2|G2A2G2 G2B2d2|e6 e2f2g2|d2B2G2 d2B2G2|A6 A2F2D2|
G2A2G2 G2B2d2|e6 e2f2g2|d2B2G2 c2A2F2|G6G4:|
|:B2|c4d2 c2A2F2|d4B2 d2B2G2|e4c2 d2B2G2|F2A2A2 A4B2|
c2d2c2 c2A2F2|d4B2 d2B2G2|e2f2g2 B2c2A2|G6 G4:|
|:Bc|d2B2G2 D4B2|c2A2F2 D4c2|B2G2B2 c2A2c2|B2G2B2 A2B2c2|
d2B2G2 D4B2|c2A2F2 D4c2|B2G2B2 c2d2c2|B2c2A2 G4:|
